X:1
T: Miss Corbet's Fancy
M: C|
B: James Campbell's Collection 1798
Z: source from Highland Music Trust, chords by Gary Whaley
L: 1/8
K:D
[|: "D" d2fd "G" {c}B2 gf | "G" ge"A"dc "D"(d/c/d/e/ d)D | 
\"D" d2fd "G" {c}B2 gf | "G"ge"A"dc "D"d2 D2 :|
| "D" AF D2 "A"BG E2 | "D" Dd"A"ce "D"(d/c/d/e/) d2 | \
"D" AFDF "Em" BGEc | "D" df"A"ec "D" d2 D2 :|]